images/portal/4947.svg

<?xml version="1.0" standalone="no"?><!DOCTYPE svg PUBLIC "-//W3C//DTD SVG 1.1//EN" "http://www.w3.org/Graphics/SVG/1.1/DTD/svg11.dtd"><svg xmlns:xlink="http://www.w3.org/1999/xlink" version="1.1" class="highcharts-root" style="font-family:Arial;font-size:12px;" xmlns="http://www.w3.org/2000/svg" viewBox="0 0 485 415"><desc>Created with Highstock 5.0.7</desc><defs><clipPath id="highcharts-96iu3lm-1"><rect x="0" y="0" width="288" height="265" fill="none"></rect></clipPath><clipPath id="highcharts-96iu3lm-2"><rect x="0" y="0" width="288" height="265" fill="none"></rect></clipPath></defs><rect fill="#fbfbfb" class="highcharts-background" x="0" y="0" width="485" height="415" rx="0" ry="0"></rect><rect fill="none" class="highcharts-plot-background" x="65" y="75" width="288" height="265"></rect><g class="highcharts-grid highcharts-xaxis-grid "><path fill="none" class="highcharts-grid-line" d="M 100.5 75 L 100.5 340" opacity="1"></path><path fill="none" class="highcharts-grid-line" d="M 136.5 75 L 136.5 340" opacity="1"></path><path fill="none" class="highcharts-grid-line" d="M 172.5 75 L 172.5 340" opacity="1"></path><path fill="none" class="highcharts-grid-line" d="M 208.5 75 L 208.5 340" opacity="1"></path><path fill="none" class="highcharts-grid-line" d="M 244.5 75 L 244.5 340" opacity="1"></path><path fill="none" class="highcharts-grid-line" d="M 280.5 75 L 280.5 340" opacity="1"></path><path fill="none" class="highcharts-grid-line" d="M 316.5 75 L 316.5 340" opacity="1"></path><path fill="none" class="highcharts-grid-line" d="M 352.5 75 L 352.5 340" opacity="1"></path><path fill="none" class="highcharts-grid-line" d="M 64.5 75 L 64.5 340" opacity="1"></path></g><g class="highcharts-grid highcharts-yaxis-grid "><path fill="none" stroke="#e6e6e6" stroke-width="1" class="highcharts-grid-line" d="M 65 340.5 L 353 340.5" opacity="1"></path><path fill="none" stroke="#e6e6e6" stroke-width="1" class="highcharts-grid-line" d="M 65 274.5 L 353 274.5" opacity="1"></path><path fill="none" stroke="#e6e6e6" stroke-width="1" class="highcharts-grid-line" d="M 65 208.5 L 353 208.5" opacity="1"></path><path fill="none" stroke="#e6e6e6" stroke-width="1" class="highcharts-grid-line" d="M 65 141.5 L 353 141.5" opacity="1"></path><path fill="none" stroke="#e6e6e6" stroke-width="1" class="highcharts-grid-line" d="M 65 74.5 L 353 74.5" opacity="1"></path></g><rect fill="none" class="highcharts-plot-border" x="65" y="75" width="288" height="265"></rect><g class="highcharts-axis highcharts-xaxis "><path fill="none" class="highcharts-tick" stroke="#FFFFFF" stroke-width="1" d="M 100.5 340 L 100.5 350" opacity="1"></path><path fill="none" class="highcharts-tick" stroke="#FFFFFF" stroke-width="1" d="M 136.5 340 L 136.5 350" opacity="1"></path><path fill="none" class="highcharts-tick" stroke="#FFFFFF" stroke-width="1" d="M 172.5 340 L 172.5 350" opacity="1"></path><path fill="none" class="highcharts-tick" stroke="#FFFFFF" stroke-width="1" d="M 208.5 340 L 208.5 350" opacity="1"></path><path fill="none" class="highcharts-tick" stroke="#FFFFFF" stroke-width="1" d="M 244.5 340 L 244.5 350" opacity="1"></path><path fill="none" class="highcharts-tick" stroke="#FFFFFF" stroke-width="1" d="M 280.5 340 L 280.5 350" opacity="1"></path><path fill="none" class="highcharts-tick" stroke="#FFFFFF" stroke-width="1" d="M 316.5 340 L 316.5 350" opacity="1"></path><path fill="none" class="highcharts-tick" stroke="#FFFFFF" stroke-width="1" d="M 353.5 340 L 353.5 350" opacity="1"></path><path fill="none" class="highcharts-tick" stroke="#FFFFFF" stroke-width="1" d="M 64.5 340 L 64.5 350" opacity="1"></path><path fill="none" class="highcharts-axis-line" stroke="#ccd6eb" stroke-width="1" d="M 65 340.5 L 353 340.5"></path></g><g class="highcharts-axis highcharts-yaxis "><path fill="none" class="highcharts-axis-line" d="M 65 75 L 65 340"></path></g><g class="highcharts-series-group"><g class="highcharts-series highcharts-series-0 highcharts-column-series highcharts-color-undefined highcharts-tracker" transform="translate(65,75) scale(1 1)" clip-path="url(#highcharts-96iu3lm-2)"><rect x="5.5" y="120.5" width="25" height="145" fill="#246370" class="highcharts-point" stroke="#ffffff" stroke-width="1"></rect><rect x="41.5" y="118.5" width="25" height="147" fill="#246370" class="highcharts-point" stroke="#ffffff" stroke-width="1"></rect><rect x="77.5" y="114.5" width="25" height="151" fill="#246370" class="highcharts-point" stroke="#ffffff" stroke-width="1"></rect><rect x="113.5" y="112.5" width="25" height="153" fill="#246370" class="highcharts-point" stroke="#ffffff" stroke-width="1"></rect><rect x="149.5" y="109.5" width="25" height="156" fill="#246370" class="highcharts-point" stroke="#ffffff" stroke-width="1"></rect><rect x="185.5" y="103.5" width="25" height="162" fill="#246370" class="highcharts-point" stroke="#ffffff" stroke-width="1"></rect><rect x="221.5" y="98.5" width="25" height="167" fill="#246370" class="highcharts-point" stroke="#ffffff" stroke-width="1"></rect><rect x="257.5" y="96.5" width="25" height="169" fill="#246370" class="highcharts-point" stroke="#ffffff" stroke-width="1"></rect></g><g class="highcharts-markers highcharts-series-0 highcharts-column-series highcharts-color-undefined " transform="translate(65,75) scale(1 1)" clip-path="none"></g><g class="highcharts-series highcharts-series-1 highcharts-column-series highcharts-color-undefined highcharts-tracker" transform="translate(65,75) scale(1 1)" clip-path="url(#highcharts-96iu3lm-2)"><rect x="5.5" y="109.5" width="25" height="11" fill="#D3E2E4" class="highcharts-point" stroke="#ffffff" stroke-width="1"></rect><rect x="41.5" y="107.5" width="25" height="11" fill="#D3E2E4" class="highcharts-point" stroke="#ffffff" stroke-width="1"></rect><rect x="77.5" y="103.5" width="25" height="11" fill="#D3E2E4" class="highcharts-point" stroke="#ffffff" stroke-width="1"></rect><rect x="113.5" y="99.5" width="25" height="13" fill="#D3E2E4" class="highcharts-point" stroke="#ffffff" stroke-width="1"></rect><rect x="149.5" y="96.5" width="25" height="13" fill="#D3E2E4" class="highcharts-point" stroke="#ffffff" stroke-width="1"></rect><rect x="185.5" y="90.5" width="25" height="13" fill="#D3E2E4" class="highcharts-point" stroke="#ffffff" stroke-width="1"></rect><rect x="221.5" y="85.5" width="25" height="13" fill="#D3E2E4" class="highcharts-point" stroke="#ffffff" stroke-width="1"></rect><rect x="257.5" y="83.5" width="25" height="13" fill="#D3E2E4" class="highcharts-point" stroke="#ffffff" stroke-width="1"></rect></g><g class="highcharts-markers highcharts-series-1 highcharts-column-series highcharts-color-undefined " transform="translate(65,75) scale(1 1)" clip-path="none"></g><g class="highcharts-series highcharts-series-2 highcharts-column-series highcharts-color-undefined highcharts-tracker" transform="translate(65,75) scale(1 1)" clip-path="url(#highcharts-96iu3lm-2)"><rect x="5.5" y="100.5" width="25" height="9" fill="#68AB2B " class="highcharts-point" stroke="#ffffff" stroke-width="1"></rect><rect x="41.5" y="97.5" width="25" height="10" fill="#68AB2B " class="highcharts-point" stroke="#ffffff" stroke-width="1"></rect><rect x="77.5" y="93.5" width="25" height="10" fill="#68AB2B " class="highcharts-point" stroke="#ffffff" stroke-width="1"></rect><rect x="113.5" y="90.5" width="25" height="9" fill="#68AB2B " class="highcharts-point" stroke="#ffffff" stroke-width="1"></rect><rect x="149.5" y="87.5" width="25" height="9" fill="#68AB2B " class="highcharts-point" stroke="#ffffff" stroke-width="1"></rect><rect x="185.5" y="80.5" width="25" height="10" fill="#68AB2B " class="highcharts-point" stroke="#ffffff" stroke-width="1"></rect><rect x="221.5" y="75.5" width="25" height="10" fill="#68AB2B " class="highcharts-point" stroke="#ffffff" stroke-width="1"></rect><rect x="257.5" y="73.5" width="25" height="10" fill="#68AB2B " class="highcharts-point" stroke="#ffffff" stroke-width="1"></rect></g><g class="highcharts-markers highcharts-series-2 highcharts-column-series highcharts-color-undefined " transform="translate(65,75) scale(1 1)" clip-path="none"></g><g class="highcharts-series highcharts-series-3 highcharts-column-series highcharts-color-undefined highcharts-tracker" transform="translate(65,75) scale(1 1)" clip-path="url(#highcharts-96iu3lm-2)"><rect x="5.5" y="93.5" width="25" height="7" fill="#662673" class="highcharts-point" stroke="#ffffff" stroke-width="1"></rect><rect x="41.5" y="91.5" width="25" height="6" fill="#662673" class="highcharts-point" stroke="#ffffff" stroke-width="1"></rect><rect x="77.5" y="87.5" width="25" height="6" fill="#662673" class="highcharts-point" stroke="#ffffff" stroke-width="1"></rect><rect x="113.5" y="83.5" width="25" height="7" fill="#662673" class="highcharts-point" stroke="#ffffff" stroke-width="1"></rect><rect x="149.5" y="79.5" width="25" height="8" fill="#662673" class="highcharts-point" stroke="#ffffff" stroke-width="1"></rect><rect x="185.5" y="72.5" width="25" height="8" fill="#662673" class="highcharts-point" stroke="#ffffff" stroke-width="1"></rect><rect x="221.5" y="67.5" width="25" height="8" fill="#662673" class="highcharts-point" stroke="#ffffff" stroke-width="1"></rect><rect x="257.5" y="64.5" width="25" height="9" fill="#662673" class="highcharts-point" stroke="#ffffff" stroke-width="1"></rect></g><g class="highcharts-markers highcharts-series-3 highcharts-column-series highcharts-color-undefined " transform="translate(65,75) scale(1 1)" clip-path="none"></g></g><text x="10" text-anchor="start" class="highcharts-title" style="color:#000000;font-size:14px;font-weight:bold;fill:#000000;" y="21"><tspan>Hospitalisierungen in baselstädtischen Spitälern nach</tspan><tspan dy="17" x="10">Hauptbereich</tspan><title>Hospitalisierungen in baselstädtischen Spitälern nach Hauptbereich</title></text><g class="highcharts-legend" transform="translate(365,154)"><rect fill="none" class="highcharts-legend-box" rx="0" ry="0" x="0" y="0" width="109" height="87" visibility="visible"></rect><g><g><g class="highcharts-legend-item highcharts-column-series highcharts-color-undefined highcharts-series-3" transform="translate(8,3)"><text x="21" style="color:#333333;font-size:12px;font-weight:normal;cursor:pointer;fill:#333333;" text-anchor="start" y="15">Rehabilitation</text><rect x="2" y="4" width="12" height="12" fill="#662673" class="highcharts-point"></rect></g><g class="highcharts-legend-item highcharts-column-series highcharts-color-undefined highcharts-series-2" transform="translate(8,22)"><text x="21" y="15" style="color:#333333;font-size:12px;font-weight:normal;cursor:pointer;fill:#333333;" text-anchor="start">Psychiatrie</text><rect x="2" y="4" width="12" height="12" fill="#68AB2B " class="highcharts-point"></rect></g><g class="highcharts-legend-item highcharts-column-series highcharts-color-undefined highcharts-series-1" transform="translate(8,41)"><text x="21" y="15" style="color:#333333;font-size:12px;font-weight:normal;cursor:pointer;fill:#333333;" text-anchor="start">Geriatrie</text><rect x="2" y="4" width="12" height="12" fill="#D3E2E4" class="highcharts-point"></rect></g><g class="highcharts-legend-item highcharts-column-series highcharts-color-undefined highcharts-series-0" transform="translate(8,60)"><text x="21" y="15" style="color:#333333;font-size:12px;font-weight:normal;cursor:pointer;fill:#333333;" text-anchor="start">Akutsomatik</text><rect x="2" y="4" width="12" height="12" fill="#246370" class="highcharts-point"></rect></g></g></g></g><g class="highcharts-axis-labels highcharts-xaxis-labels "><text x="83" style="color:#000000;cursor:default;font-size:11px;fill:#000000;" text-anchor="middle" transform="translate(0,0)" y="359" opacity="1">2008</text><text x="119" style="color:#000000;cursor:default;font-size:11px;fill:#000000;" text-anchor="middle" transform="translate(0,0)" y="359" opacity="1">2009</text><text x="155" style="color:#000000;cursor:default;font-size:11px;fill:#000000;" text-anchor="middle" transform="translate(0,0)" y="359" opacity="1">2010</text><text x="191" style="color:#000000;cursor:default;font-size:11px;fill:#000000;" text-anchor="middle" transform="translate(0,0)" y="359" opacity="1">2011</text><text x="227" style="color:#000000;cursor:default;font-size:11px;fill:#000000;" text-anchor="middle" transform="translate(0,0)" y="359" opacity="1">2012</text><text x="263" style="color:#000000;cursor:default;font-size:11px;fill:#000000;" text-anchor="middle" transform="translate(0,0)" y="359" opacity="1">2013</text><text x="299" style="color:#000000;cursor:default;font-size:11px;fill:#000000;" text-anchor="middle" transform="translate(0,0)" y="359" opacity="1">2014</text><text x="335" style="color:#000000;cursor:default;font-size:11px;fill:#000000;" text-anchor="middle" transform="translate(0,0)" y="359" opacity="1">2015</text></g><g class="highcharts-axis-labels highcharts-yaxis-labels "><text x="50" style="color:#000000;cursor:default;font-size:11px;fill:#000000;" text-anchor="end" transform="translate(0,0)" y="345" opacity="1"><tspan>0</tspan></text><text x="50" style="color:#000000;cursor:default;font-size:11px;fill:#000000;" text-anchor="end" transform="translate(0,0)" y="278" opacity="1"><tspan>25 000</tspan></text><text x="50" style="color:#000000;cursor:default;font-size:11px;fill:#000000;" text-anchor="end" transform="translate(0,0)" y="212" opacity="1"><tspan>50 000</tspan></text><text x="50" style="color:#000000;cursor:default;font-size:11px;fill:#000000;" text-anchor="end" transform="translate(0,0)" y="146" opacity="1"><tspan>75 000</tspan></text><text x="50" style="color:#000000;cursor:default;font-size:11px;fill:#000000;" text-anchor="end" transform="translate(0,0)" y="80" opacity="1"><tspan>100 000</tspan></text></g><text x="10" class="highcharts-credits" text-anchor="start" style="cursor:default;color:#000000;font-size:10px;fill:#000000;" y="390"><tspan>Quelle: Statistisches Amt Basel-Stadt, kantonale Gesundheitsstatistik;</tspan><tspan x="10" dy="13">Bundesamt für Statistik BFS, medizinische Statistik der Krankenhäuser</tspan></text></svg>

<svg class="highcharts-root" xmlns="http://www.w3.org/2000/svg" viewBox="0 0 485 415" font-family="Arial" font-size="12">
    <defs>
        <clipPath id="a">
            <path fill="none" d="M0 0h288v265H0z"/>
        </clipPath>
    </defs>
    <rect fill="#fbfbfb" class="highcharts-background" width="485" height="415" rx="0" ry="0"/>
    <path fill="none" class="highcharts-plot-background" d="M65 75h288v265H65z"/>
    <g class="highcharts-grid highcharts-xaxis-grid">
        <path fill="none" class="highcharts-grid-line" d="M100.5 75v265m36-265v265m36-265v265m36-265v265m36-265v265m36-265v265m36-265v265m36-265v265M64.5 75v265"/>
    </g>
    <g class="highcharts-grid highcharts-yaxis-grid">
        <path fill="none" stroke="#e6e6e6" class="highcharts-grid-line" d="M65 340.5h288m-288-66h288m-288-66h288m-288-67h288m-288-67h288"/>
    </g>
    <path fill="none" class="highcharts-plot-border" d="M65 75h288v265H65z"/>
    <g class="highcharts-axis highcharts-xaxis">
        <path fill="none" class="highcharts-tick" stroke="#FFF" d="M100.5 340v10m36-10v10m36-10v10m36-10v10m36-10v10m36-10v10m36-10v10m37-10v10m-289-10v10"/>
        <path fill="none" class="highcharts-axis-line" stroke="#ccd6eb" d="M65 340.5h288"/>
    </g>
    <g class="highcharts-axis highcharts-yaxis">
        <path fill="none" class="highcharts-axis-line" d="M65 75v265"/>
    </g>
    <g class="highcharts-series-group">
        <g class="highcharts-series highcharts-series-0 highcharts-column-series highcharts-color-undefined highcharts-tracker" transform="translate(65 75)" clip-path="url(#a)">
            <path fill="#246370" class="highcharts-point" stroke="#fff" d="M5.5 120.5h25v145h-25zm36-2h25v147h-25zm36-4h25v151h-25zm36-2h25v153h-25zm36-3h25v156h-25zm36-6h25v162h-25zm36-5h25v167h-25zm36-2h25v169h-25z"/>
        </g>
        <g class="highcharts-series highcharts-series-1 highcharts-column-series highcharts-color-undefined highcharts-tracker" transform="translate(65 75)" clip-path="url(#a)">
            <path fill="#D3E2E4" class="highcharts-point" stroke="#fff" d="M5.5 109.5h25v11h-25zm36-2h25v11h-25zm36-4h25v11h-25zm36-4h25v13h-25zm36-3h25v13h-25zm36-6h25v13h-25zm36-5h25v13h-25zm36-2h25v13h-25z"/>
        </g>
        <g class="highcharts-series highcharts-series-2 highcharts-column-series highcharts-color-undefined highcharts-tracker" transform="translate(65 75)" clip-path="url(#a)">
            <path fill="#68AB2B" class="highcharts-point" stroke="#fff" d="M5.5 100.5h25v9h-25zm36-3h25v10h-25zm36-4h25v10h-25zm36-3h25v9h-25zm36-3h25v9h-25zm36-7h25v10h-25zm36-5h25v10h-25zm36-2h25v10h-25z"/>
        </g>
        <g class="highcharts-series highcharts-series-3 highcharts-column-series highcharts-color-undefined highcharts-tracker" transform="translate(65 75)" clip-path="url(#a)">
            <path fill="#662673" class="highcharts-point" stroke="#fff" d="M5.5 93.5h25v7h-25zm36-2h25v6h-25zm36-4h25v6h-25zm36-4h25v7h-25zm36-4h25v8h-25zm36-7h25v8h-25zm36-5h25v8h-25zm36-3h25v9h-25z"/>
        </g>
    </g>
    <text x="10" class="highcharts-title" y="21" color="#000" font-size="14" font-weight="700">
        <tspan>Hospitalisierungen in baselstädtischen Spitälern nach</tspan><tspan dy="17" x="10">Hauptbereich</tspan><title>Hospitalisierungen in baselstädtischen Spitälern nach Hauptbereich</title>
    </text>
    <g class="highcharts-legend" transform="translate(365 154)">
        <rect fill="none" class="highcharts-legend-box" rx="0" ry="0" width="109" height="87"/>
        <g class="highcharts-legend-item highcharts-column-series highcharts-color-undefined highcharts-series-3">
            <text x="21" y="15" color="#333" font-weight="400" cursor="pointer" fill="#333" transform="translate(8 3)">
                Rehabilitation
            </text>
            <path fill="#662673" class="highcharts-point" d="M10 7h12v12H10z"/>
        </g>
        <g class="highcharts-legend-item highcharts-column-series highcharts-color-undefined highcharts-series-2">
            <text x="21" y="15" color="#333" font-weight="400" cursor="pointer" fill="#333" transform="translate(8 22)">
                Psychiatrie
            </text>
            <path fill="#68AB2B" class="highcharts-point" d="M10 26h12v12H10z"/>
        </g>
        <g class="highcharts-legend-item highcharts-column-series highcharts-color-undefined highcharts-series-1">
            <text x="21" y="15" color="#333" font-weight="400" cursor="pointer" fill="#333" transform="translate(8 41)">
                Geriatrie
            </text>
            <path fill="#D3E2E4" class="highcharts-point" d="M10 45h12v12H10z"/>
        </g>
        <g class="highcharts-legend-item highcharts-column-series highcharts-color-undefined highcharts-series-0">
            <text x="21" y="15" color="#333" font-weight="400" cursor="pointer" fill="#333" transform="translate(8 60)">
                Akutsomatik
            </text>
            <path fill="#246370" class="highcharts-point" d="M10 64h12v12H10z"/>
        </g>
    </g>
    <g class="highcharts-axis-labels highcharts-xaxis-labels" text-anchor="middle" color="#000" cursor="default" font-size="11">
        <text x="83" y="359">
            2008
        </text>
        <text x="119" y="359">
            2009
        </text>
        <text x="155" y="359">
            2010
        </text>
        <text x="191" y="359">
            2011
        </text>
        <text x="227" y="359">
            2012
        </text>
        <text x="263" y="359">
            2013
        </text>
        <text x="299" y="359">
            2014
        </text>
        <text x="335" y="359">
            2015
        </text>
    </g>
    <g class="highcharts-axis-labels highcharts-yaxis-labels" text-anchor="end" color="#000" cursor="default" font-size="11">
        <text x="50" y="345">
            <tspan>0</tspan>
        </text>
        <text x="50" y="278">
            <tspan>25 000</tspan>
        </text>
        <text x="50" y="212">
            <tspan>50 000</tspan>
        </text>
        <text x="50" y="146">
            <tspan>75 000</tspan>
        </text>
        <text x="50" y="80">
            <tspan>100 000</tspan>
        </text>
    </g>
    <text x="10" class="highcharts-credits" y="390" cursor="default" color="#000" font-size="10">
        <tspan>Quelle: Statistisches Amt Basel-Stadt, kantonale Gesundheitsstatistik;</tspan><tspan x="10" dy="13">Bundesamt für Statistik BFS, medizinische Statistik der Krankenhäuser</tspan>
    </text>
</svg>
